resources/svg/article.svg

<svg xmlns="http://www.w3.org/2000/svg" viewBox="0 0 24 24" fill="currentColor"><path fill="none" stroke="currentColor" stroke-width="2" d="M16,7 L19,7 L19,11 L16,11 L16,7 Z M9,15 L20,15 M9,11 L13,11 M9,7 L13,7 M6,18.5 C6,19.8807119 4.88071187,21 3.5,21 C2.11928813,21 1,19.8807119 1,18.5 L1,7 L6.02493781,7 M6,18.5 L6,3 L23,3 L23,18.5 C23,19.8807119 21.8807119,21 20.5,21 L3.5,21"/></svg>

<svg viewBox="0 0 24 24"><path fill="none" stroke="currentColor" stroke-width="2" d="M16 7h3v4h-3V7zm-7 8h11M9 11h4M9 7h4M6 18.5a2.5 2.5 0 1 1-5 0V7h5.025M6 18.5V3h17v15.5a2.5 2.5 0 0 1-2.5 2.5h-17"/></svg>
